static/images/pieces/green/bF.svg

<svg height="45" width="45" xmlns="http://www.w3.org/2000/svg"><g stroke="#000" stroke-linecap="round" stroke-width="1.5"><path d="m16.000002 21c0 2.03.94 3.84 2.41 5.03-3 1.06-7.41 5.55-7.41 13.47h22.999997c0-7.92-4.41-12.41-7.41-13.47 1.47-1.19 2.41-3 2.41-5.03.0271-7.322232-12.881979-8.26288-12.999997 0z"/><g fill-rule="evenodd" stroke-linejoin="round" transform="matrix(.61018182 0 0 .61018182 8.77091 -1.712182)"><g stroke="none"><circle cx="6" cy="12" r="2.75"/><circle cx="22.5" cy="8" r="2.75"/><circle cx="39" cy="12" r="2.75"/></g><path d="m9 26c8.5-1.5 21-1.5 27 0l2.5-12.5-7.5 11.5-2-5-3.5 4.5-3-14.5-3 14.5-3.5-4.5-2 5-7.5-11.5z" stroke-linecap="butt"/><path d="m9 26c0 2 1.5 2 2.5 4 1 1.5 1 1 .5 3.5 0 1.000338.465317 2.5.465317 2.5h20.413056s.413938-1.409087.121629-2.5c-.5-2.5-.5-2 .5-3.5 1-2 2.5-2 2.5-4-8.5-1.5-18.5-1.5-27 0z" stroke-linecap="butt"/><path d="m11 29c7.44776-2.590974 15.55224-2.590974 23 0m-21.5 2.5c6.946703-1.120144 13.557044-.894841 20 0" fill="none" stroke="#ececec"/></g></g></svg>

<?xml version="1.0" encoding="UTF-8" standalone="no"?>
<svg
   width="45"
   height="45"
   version="1.1"
   id="svg3150"
   sodipodi:docname="bF.svg"
   inkscape:version="1.2.2 (b0a8486541, 2022-12-01)"
   xmlns:inkscape="http://www.inkscape.org/namespaces/inkscape"
   xmlns:sodipodi="http://sodipodi.sourceforge.net/DTD/sodipodi-0.dtd"
   xmlns="http://www.w3.org/2000/svg"
   xmlns:svg="http://www.w3.org/2000/svg">
  <defs
     id="defs3154" />
  <sodipodi:namedview
     id="namedview3152"
     pagecolor="#ffffff"
     bordercolor="#666666"
     borderopacity="1.0"
     inkscape:showpageshadow="2"
     inkscape:pageopacity="0.0"
     inkscape:pagecheckerboard="0"
     inkscape:deskcolor="#d1d1d1"
     showgrid="false"
     inkscape:zoom="11.79297"
     inkscape:cx="13.101026"
     inkscape:cy="58.043056"
     inkscape:window-width="3840"
     inkscape:window-height="2036"
     inkscape:window-x="3828"
     inkscape:window-y="-12"
     inkscape:window-maximized="1"
     inkscape:current-layer="svg3150" />
  <path
     d="m 16.000002,21 c 0,2.03 0.94,3.84 2.41,5.03 -3,1.06 -7.41,5.55 -7.41,13.47 h 22.999997 c 0,-7.92 -4.41,-12.41 -7.41,-13.47 1.47,-1.19 2.41,-3 2.41,-5.03 0.0271,-7.322232 -12.881979,-8.26288 -12.999997,0 z"
     stroke="#000000"
     stroke-width="1.5"
     stroke-linecap="round"
     id="path3148-8"
     sodipodi:nodetypes="ccccccc" />
  <g
     fill-rule="evenodd"
     stroke="#000000"
     stroke-width="1.5"
     stroke-linecap="round"
     stroke-linejoin="round"
     id="g10992-2"
     transform="matrix(0.61018182,0,0,0.61018182,8.7709095,-1.7121817)">
    <g
       stroke="none"
       id="g10982-9">
      <circle
         cx="6"
         cy="12"
         r="2.75"
         id="circle10972-1" />
      <circle
         cx="22.5"
         cy="8"
         r="2.75"
         id="circle10976-3" />
      <circle
         cx="39"
         cy="12"
         r="2.75"
         id="circle10980-4" />
    </g>
    <path
       d="m 9,26 c 8.5,-1.5 21,-1.5 27,0 L 38.5,13.5 31,25 29,20 25.5,24.5 22.5,10 19.5,24.5 16,20 14,25 6.5,13.5 Z"
       stroke-linecap="butt"
       id="path10984-6"
       sodipodi:nodetypes="cccccccccccc" />
    <path
       d="m 9,26 c 0,2 1.5,2 2.5,4 1,1.5 1,1 0.5,3.5 0,1.000338 0.465317,2.5 0.465317,2.5 h 20.413056 c 0,0 0.413938,-1.409087 0.121629,-2.5 -0.5,-2.5 -0.5,-2 0.5,-3.5 1,-2 2.5,-2 2.5,-4 -8.5,-1.5 -18.5,-1.5 -27,0 z"
       stroke-linecap="butt"
       id="path10986-2"
       sodipodi:nodetypes="cccccccccc" />
    <path
       d="m 11,29 c 7.44776,-2.590974 15.55224,-2.590974 23,0 m -21.5,2.5 c 6.946703,-1.120144 13.557044,-0.894841 20,0"
       fill="none"
       stroke="#ececec"
       id="path10990-0"
       sodipodi:nodetypes="cccc" />
  </g>
</svg>
